!!!OTL: 551. Trinklied der Studenten.
!!!ODT: 1791
!!!ARE: Europa, Mitteleuropa, Deutschland
!!!SCT: B0551
!!!TXL: @@DE
!!!YEM: Copyright 1995, estate of Helmut Schaffrath.
**kern	**text
*ICvox	*
*Ivox	*
*clefG2	*
*M3/4	*
*k[b-e-]	*
*B-:	*
=1	=1
!LO:TX:a:t=Ruhig, nicht langsam.	!
{(4f	Brü-
4b-)	.
4b-	-der,
=2	=2
(4b-	la-
4g)	.
4g}	-gert
=3	=3
{(4ee-	euch
4cc)	.
4a	im
=4	=4
8ccL	Krei-
8b-J	.
2b-}	-ſe,
=5	=5
{(4f	trinkt
4b-)	.
4b-	nach
=6	=6
(4b-	al-
4g)	.
4g}	-ter
=7	=7
{(4ee-	Vä-
4cc)	.
4a	-ter
=8	=8
8ccL	Wei-
8b-J	.
2b-}	-ſe.
=9	=9
{(4.dd	leert
8b-)	.
8ffL	die
8ddJ	.
=10	=10
8ddL	Glä-
8ccJ	.
2cc}	-ſer.
=11	=11
{(4.b-	ſchwenkt
8dd)	.
8ccL	die
8b-J	.
=12	=12
8b-L	Hü-
8aJ	.
2a}	-te
=13	=13
{(4.g	auf
8a)	.
8b-L	der
8gJ	.
=14	=14
(4f	gold-
4ee-)	.
4dd}	-nen
=15	=15
{(4cc	Frei-
4b-)	.
4a	-heit
=16	=16
2b-	Wohl!
4r}	.
=17	=17
{(4.dd	leert
8b-)	.
8ffL	die
8ddJ	.
=18	=18
8ddL	Glä-
8ccJ	.
2cc}	-ſer.
=19	=19
{(4.b-	ſchwenkt
8dd)	.
8ccL	die
8b-J	.
=20	=20
8b-L	Hü-
8aJ	.
2a}	-te
=21	=21
{(4.g	auf
8a)	.
8b-L	der
8gJ	.
=22	=22
(4f	gold-
4ee-)	.
4dd}	-nen
=23	=23
{(4cc	Frei-
4b-)	.
4a	-heit
=24	=24
2b-	Wohl!
4r}	.
==	==
!!!AGN: Studenten -, Trink - Lied
!!!GTL: Studentenlieder
!!!ONB: ESAC (Essen Associative Code) Database: BOEHME
!!!AMT: simple triple
!!!AIN: vox
!!!EED: Helmut Schaffrath
!!!EEV: 1.0
!!Allgemein bekannte Weiſe. 1794. (1801).
!!@@COMMENT:"Studentenlied. Ʒuerſt gedruckt in "Ausbund lieblicher Burſchenlieder". Altdorf 1794. Nr. 8.
!!Dort aber hat das Lied nur 5 Strophen mit dem Eingange: "Brüder, lagert euch hernieder". Später
!!erſt in G. W. Schneider's "Commerslieder" Halle 1801 Nr. 1 hat es wie hier und im Allgemeinen
!!deutſchen Commersbuch 10 Strophen, davon die 8. und 9. ſchon längſt nicht mehr geſungen werden.
!!Jetʒt in allen Taſchenlieder- und Commersbüchern.
!!Als Entſtehungsʒeit des Liedes ſetʒt Hoffmann die 2. Hälfte des 18. Jahrhunderts. - Auf
!!den Göttinger Hainbund ſcheinen Str. 6 und 8 hinʒudeuten."
!!@@END:
!!!URL-scan: https://archive.org/details/BoehmeVtLieder1895/page/n439/mode/2up
!!!ENC: Anna Maria Matuszewska
!!!EEV: 2024/11/07
*-	*-
